svg/food_apple.svg

<svg xmlns="http://www.w3.org/2000/svg" viewBox="0 0 24 24"><path d="M20 10c2 3-3 12-5 12s-2-1-3-1-1 1-3 1-7-9-5-12 5-3 7-2V5C5.38 8.07 4.11 3.78 4.11 3.78S6.77.19 11 5V3h2v5c2-1 5-1 7 2"/></svg>

<?xml version="1.0" encoding="UTF-8"?><!DOCTYPE svg PUBLIC "-//W3C//DTD SVG 1.1//EN" "http://www.w3.org/Graphics/SVG/1.1/DTD/svg11.dtd"><svg xmlns="http://www.w3.org/2000/svg" xmlns:xlink="http://www.w3.org/1999/xlink" version="1.1" id="mdi-food-apple" width="24" height="24" viewBox="0 0 24 24"><path d="M20,10C22,13 17,22 15,22C13,22 13,21 12,21C11,21 11,22 9,22C7,22 2,13 4,10C6,7 9,7 11,8V5C5.38,8.07 4.11,3.78 4.11,3.78C4.11,3.78 6.77,0.19 11,5V3H13V8C15,7 18,7 20,10Z" /></svg>
